loleaflet/images/x-office-document.svg

<svg viewBox="0 0 24 24" xmlns="http://www.w3.org/2000/svg"><path d="m5 3v18h14v-12l-6-6z" fill="#fff"/><g fill="#0063b1"><path d="m5 2c-.554 0-1 .446-1 1v18c0 .554.446 1 1 1h14c.554 0 1-.446 1-1v-9h-.002l.002-2.5c-.000025-.1325994-.05272-.2597597-.146484-.3535156l-7-7c-.093756-.0937682-.220916-.146459-.353516-.1464844h-2.5-4.5zm0 1h.4648438 4.5351562 2.292969l6.707031 6.7070312-.0078 7.5976568c-.000728.03338.0019.06675.0078.09961v3.595702h-14z" fill="#0063b1"/><path d="m15.411494 2.0075719c-.416024.1332524-.556031.766565-.235307 1.0643933l3.764927 3.7845094c.347817.331511 1.040564.047817 1.058886-.4336417v-3.7845094c-.000038-.3302491-.298947-.6307139-.627488-.6307516h-3.764929c-.06489-.010096-.131258-.010096-.196089 0z" fill="#0063b1"/><g fill="#1e8bcd" stroke-width="5.01122"><path d="m6 9h4v1h-4z"/><path d="m6 15h12l-.000152 1h-11.999848z"/><path d="m6.000114 18h7.999886l-.000114 1h-7.999886z"/><path d="m6 12h4l-.000152 1h-3.999848z"/></g></g><path d="m11 8.99609v5.00391h7v-5.00391zm1 1h5v.00391h.002v3.00391h-5v-.507816l-.002.0039z" fill="#0063b1"/><path d="m17 9.999996v2.500004l-.5-.5h-.5l-2-1.50391-1.998047 2.000004v.507812h5v-3.00391z" fill="#83beec"/><path d="m15.001953 9.999996c0 1.104569.895431 2 2 2v-2z" fill="#fb983b" fill-opacity=".978947"/></svg>

<?xml-stylesheet type="text/css" href="icons.css" ?>
<svg viewBox="0 0 24 24" xmlns="http://www.w3.org/2000/svg">
  <path
     style="fill:#1e8bcd"
     d="M 5,2 C 4.446,2 4,2.446 4,3 v 18 c 0,0.554 0.446,1 1,1 h 14 c 0.554,0 1,-0.446 1,-1 V 12 H 20 L 20,9.5 C 20,9.4 19.95,9.25 19.85,9.15 l -7,-7 C 12.76,2 12.6326,2 12.5,2 H 10 5.5 Z" />
  <path
     d="M 5,3 V 21 H 19 V 9.7 L 12.3,3 Z"
     style="fill:#fafafa"
     />
  <path
     d="m 15.4,2 c -0.416024,0.1332524 -0.556031,0.766565 -0.235307,1.0643933 l 3.764927,3.7845094 C 19.288931,7.1879856 19.981678,6.9042916 20,6.4228329 V 2.6383235 C 19.999962,2.3080744 19.701053,2.0076096 19.372512,2.0075719 h -3.764929 c -0.1,-0 -0.1,-0 -0.2,0 z"
     style="fill:#1e8bcd" />
  <path
     style="stroke:#1e8bcd;stroke-width:1;stroke-linecap:round;stroke-linejoin:round"
     d="M 6.5 9.5 L 13.5 9.5 L 6.5 9.5 z M 6.5 12.5 L 17.5 12.5 L 6.5 12.5 z M 6.5 15.5 L 17.5 15.5 L 6.5 15.5 z M 6.5 18.5 L 13.5 18.5 L 6.5 18.5 z "
     />
</svg>
